src/assets/image/block6/step3/description.svg

<svg width="8" height="13" viewBox="0 0 8 13" fill="none" xmlns="http://www.w3.org/2000/svg">
<path d="M4.4 8.4798H2.56C2.56 8.05313 2.656 7.65313 2.848 7.2798C3.04 6.8958 3.27467 6.57046 3.552 6.3038C3.82933 6.02646 4.10667 5.76513 4.384 5.5198C4.66133 5.2638 4.896 4.98646 5.088 4.6878C5.28 4.38913 5.376 4.08513 5.376 3.7758C5.376 3.33846 5.22133 2.99713 4.912 2.7518C4.60267 2.50646 4.18667 2.3838 3.664 2.3838C3.16267 2.3838 2.73067 2.5118 2.368 2.7678C2.00533 3.0238 1.744 3.38646 1.584 3.8558L0 2.9598C0.288 2.21313 0.762667 1.6318 1.424 1.2158C2.096 0.799797 2.85867 0.591797 3.712 0.591797C4.672 0.591797 5.49333 0.863797 6.176 1.4078C6.86933 1.9518 7.216 2.7038 7.216 3.6638C7.216 4.10113 7.12 4.51713 6.928 4.9118C6.736 5.30646 6.50133 5.64246 6.224 5.9198C5.94667 6.19713 5.66933 6.46913 5.392 6.7358C5.11467 6.9918 4.88 7.26913 4.688 7.5678C4.496 7.86646 4.4 8.17046 4.4 8.4798ZM3.488 9.7918C3.81867 9.7918 4.10133 9.90913 4.336 10.1438C4.57067 10.3785 4.688 10.6611 4.688 10.9918C4.688 11.3225 4.57067 11.6051 4.336 11.8398C4.10133 12.0745 3.81867 12.1918 3.488 12.1918C3.15733 12.1918 2.87467 12.0745 2.64 11.8398C2.40533 11.6051 2.288 11.3225 2.288 10.9918C2.288 10.6611 2.4 10.3785 2.624 10.1438C2.85867 9.90913 3.14667 9.7918 3.488 9.7918Z" fill="#696FE6"/>
</svg>

<svg width="8" height="13" fill="none" xmlns="http://www.w3.org/2000/svg"><path d="M4.4 8.48H2.56c0-.427.096-.827.288-1.2.192-.384.427-.71.704-.976a18.7 18.7 0 0 1 .832-.784c.277-.256.512-.534.704-.832a1.67 1.67 0 0 0 .288-.912c0-.438-.155-.779-.464-1.024-.31-.246-.725-.368-1.248-.368-.501 0-.933.128-1.296.384s-.624.618-.784 1.088L0 2.96a3.484 3.484 0 0 1 1.424-1.744C2.096.8 2.859.592 3.712.592c.96 0 1.781.272 2.464.816.693.544 1.04 1.296 1.04 2.256 0 .437-.096.853-.288 1.248-.192.394-.427.73-.704 1.008-.277.277-.555.55-.832.816a4.288 4.288 0 0 0-.704.832 1.67 1.67 0 0 0-.288.912Zm-.912 1.312c.33 0 .613.117.848.352s.352.517.352.848c0 .33-.117.613-.352.848a1.156 1.156 0 0 1-.848.352c-.33 0-.613-.117-.848-.352a1.156 1.156 0 0 1-.352-.848 1.175 1.175 0 0 1 1.2-1.2Z" fill="#696FE6"/></svg>
